Sharp-p/HW1MachineLearning/log/Reacher3_arch2_lr0.001_batch16_valS0.05_relu_predictions_sample.csv
Actual_q1 Pred_q1 Actual_q2 Pred_q2 Actual_q3 Pred_q3
0.0803355867872533 0.077304855 0.0718601104320442 0.04472371 -0.0258829915838689 0.030898798
1.202716694681527e-06 0.0015214627 -4.218847493575595e-15 -0.008126389 0.0537542058899883 0.06064087
0.0462814281765822 0.05143717 0.0811943993963811 0.079691716 1.7985612998927536e-14 0.0023535516
0.0760223369471879 0.063943334 0.0161678402637749 0.045391057 0.1095175685889962 0.09075813
0.1056647980741516 0.11913778 0.1072611615116532 0.06801736 -0.0740736096470446 -0.047622703
0.0443351259438866 0.05886965 0.1121194060947987 0.07953562 0.041351553487176 0.06946475
0.1139629048815862 0.09359281 0.0605218775223946 0.092761956 -0.0474040757998575 -0.049745798
0.0235739215269115 0.010240724 0.0133474116917371 0.044214234 0.0880827008484304 0.07582263
0.0066790270061929 -0.0019514355 0.0772175489569096 0.09048489 0.0 -0.005817984
-0.0270192845218129 -0.007932944 0.1048832897270584 0.104354165 0.0519289402237481 0.03639153
0.0692694720225679 0.06309402 0.0092976864905156 0.016564332 0.0825370351524843 0.0682054
0.030917231076784 0.023905573 0.0455491363999549 0.06174473 0.089663641224843 0.069911905
-0.0001165040645867 -0.0017495508 -0.0024204711875905 -0.0066534174 0.0024376051541683 0.00753606
0.1117884458638536 0.10029317 0.0389706533091727 0.030573765 -0.0043103107721222 0.028963802
0.0930171488861706 0.11773245 0.0872114486317636 0.045191374 -0.0501641907322716 -0.021945434
0.0554136058371048 0.056516618 0.0339637558500369 0.042783134 0.0630159242792512 0.051035155
0.0 -4.2525986e-05 0.0881945457644979 0.10407441 0.0927647223864246 0.06709028
0.0845501618522126 0.08909979 -0.0410516569356782 -0.047868874 0.0401768015381354 0.04998089
0.0844986391987945 0.08012826 0.0732383155560013 0.08024714 -6.439293542825908e-15 -0.004144543
-0.0731283499466221 -0.08081184 0.0893927996910028 0.07435811 0.1072405450623942 0.12203796
0.0982502935169962 0.096669555 0.10543606327739 0.10540136 -0.0263069245497963 -0.011394587
0.0301647968720937 0.029710015 0.0962266815589802 0.099411726 0.0 0.000636815
0.008323010691519 0.0053313244 0.041192261170159 0.044321716 -2.9753977059954195e-14 0.001452661
0.0 0.002605321 -0.0094096965555237 -0.01828283 0.0920563411992854 0.0955396
0.0624512771272076 0.07103803 9.1684300377759e-05 -0.011788528 -1.1022105908642388e-05 0.013716503
5.4178883601707645e-14 -0.006227484 0.033220674858529 0.040735904 0.0927717225025615 0.09475887
-0.0144298399959366 -0.009677658 0.0750362915776665 0.07250026 2.220446049250313e-16 0.0075164875
0.0994544312619079 0.08267722 -0.0481815792754378 -0.010190539 0.0935619325140703 0.04355306
0.1032448444114166 0.09307854 0.0433397001608557 0.06202333 0.0053507550343856 -0.020658338
-0.0128577219935953 -0.017029906 0.0 -0.004541524 0.1077044021109853 0.108686455
0.0262033801121024 0.038716428 0.0398703279608123 0.023284374 -5.0848214527832176e-14 0.014369356
4.440892098500626e-16 -0.0012238267 -0.0724427454410009 -0.07899805 0.0 0.021001795
0.0566242575041577 0.05851513 -0.0061531899702467 -0.00935968 0.0929300785284482 0.09401425
0.0 -0.0072074067 0.0536513711687984 0.06170591 0.0893089638732895 0.079035126
0.0302232053526378 0.0123545285 0.0689381482750128 0.08951212 -2.220446049250313e-16 -0.017186584
0.0440945969593093 0.06839305 0.0976680991642866 0.08565555 0.0797712309511543 0.037280977
0.1100381478337024 0.119322166 0.0 0.0033100653 0.0829283613279493 0.060101185
0.0256499386186979 0.051329847 0.0808016854875675 0.069312446 0.0978420580309858 0.046455912
0.0080275507253019 -0.0057311635 0.031991764605337 0.052179426 0.1126662790502823 0.095370665
0.0794876730499962 0.06865203 -0.0284739000640943 -0.008862045 0.1087539359171063 0.08438367
0.0011617004631008 0.036021825 0.0996252106984799 0.08790473 0.0933656980257598 0.03554941
-0.068274246425087 -0.07321195 0.0781556418383454 0.08169562 2.6645352591003757e-14 0.0030969146
-0.0088968416858223 -0.010779263 0.0 -0.008129679 0.0915267597609721 0.10090225
0.0519833165157679 0.07615536 0.0261752408051099 -0.011145651 0.0528453845865455 0.07720311
-0.0208755479331967 -0.023627983 0.0579772279880708 0.08210792 0.112728041701114 0.08751234
0.0873178448586253 0.09583194 -0.0231302301988602 -0.03259353 0.0001299824095721 0.01162698
1.0477925016516565e-07 0.0050159227 5.340724376079464e-07 -0.008426819 0.0491785072228216 0.058461618
0.0494693624403503 0.060179275 0.0 -0.0109830275 0.0192295365389177 0.024512796
4.440892098500626e-16 -0.0012129563 0.0741955386866211 0.073238105 1.3944401189291966e-13 0.0023982811
0.0108755167802808 0.018630967 0.0074304771908173 -4.754629e-05 -9.96583327057543e-05 0.009158227
0.0744888085128372 0.07335832 -0.0023932457770297 -0.0034548459 0.0026333849179736 0.0051169014
0.0694346150156257 0.066731565 0.1132537309044435 0.08580373 0.0093887941358441 0.062238615
0.0973108282869794 0.080844305 0.0190651257584558 0.05130352 0.1076065880448022 0.08870074
0.1095379663807951 0.0960107 0.059807013174646 0.081526615 0.113607409756575 0.10509699
0.1048649563700441 0.10956978 0.1027812915592927 0.092700064 -0.0811822107285176 -0.070818596
0.025588544714542 0.031682882 -0.0001043298547671 -0.0073770327 0.0001040922714992 0.008906777
0.0879242391523003 0.096299216 0.0960496620413684 0.09390747 -0.0033435684992726 0.0019471747
0.0385364039678015 0.04006566 0.0719608645553321 0.07915387 0.0592983722762168 0.051911328
0.0384921023891275 0.032222167 0.0546224756487774 0.062019102 0.1090116412116949 0.11288346
0.0974922596289573 0.09161206 0.1044664948947995 0.11221104 0.0777759365649748 0.083848394
-0.0097954054294073 -0.0015794913 0.0755875352213151 0.06339722 0.0 0.0043427004
0.0857563037986031 0.09152893 0.1008881140891017 0.084953114 0.0917457716883139 0.098786086
-0.020822439302286 -0.024136314 0.0008875567328654 -0.005130761 0.0914448770743842 0.10139523
0.110597512450381 0.09725275 0.0287884521070398 0.034547303 0.0366144944249879 0.04751262
0.0577019230961886 0.051772162 0.0809101832362905 0.093593486 0.0268466003458489 0.02556546
0.0848418329365825 0.08391203 0.0744093355818404 0.09023581 0.0602602081865368 0.05040926
0.1046032407171986 0.10748651 0.1094883949087139 0.10407292 -0.0962197532560089 -0.09769328
4.440892098500626e-16 0.0014792552 3.553973799030885e-06 -0.008504186 4.7740946292007536e-05 0.008612919
0.0941318166975886 0.098850235 0.0364877238724195 0.036403365 -2.220446049250313e-16 0.0064739203
0.0665365466518589 0.07061279 0.0094602544193648 -0.009073447 -2.220446049250313e-16 0.009626987
0.0606156104254496 0.07436483 -4.000975412843388e-05 -0.014060345 1.2453309322424388e-05 0.014282613
0.0587624450825357 0.059754815 0.0966777584603878 0.09989671 2.0426788260863304e-07 -0.00053494156
-1.7763568394002505e-14 0.0015933496 0.0773297816713928 0.07986957 0.0582092947180268 0.0530396
0.009653776022426 0.005739892 -0.0113898596170001 0.011797231 0.1117031449644799 0.072903946
0.0 0.0021991376 0.0 -0.0066971187 0.0578652978944553 0.07245316
0.0258871649984091 0.052151542 0.1025478384162246 0.058822755 0.1008362616029348 0.110033244
-0.0138815204690114 0.001641607 0.111890195581749 0.077709556 0.036003241338245 0.07635002
0.0750343683377154 0.078880526 0.027633627878112 0.025851801 0.0326871284608702 0.031329423
0.0560015205530356 0.068310045 0.0981681924709181 0.07969613 0.0876932008188431 0.09708527
0.0994391166131485 0.075045556 -0.0104806220049915 0.013082761 0.0876854009675656 0.06570225
0.1154421213804877 0.121506564 0.0964953478844585 0.0883013 -0.0812068776321074 -0.07076572
0.0947758587410185 0.10046658 0.0 -0.015048716 0.0357525435812933 0.051508263
0.1013057909718604 0.09084811 0.0958828830740949 0.11732636 0.0836059275633104 0.068984844
0.0156249136439585 -0.0079285 0.0104600673721312 0.04839444 0.0877517810168095 0.09010469
0.0371310273102338 0.03239983 -0.0098746530468991 -0.0044200723 0.0103855257444163 0.008199557
0.0493600655121184 0.06201956 0.0 -0.011911761 0.0868415650383269 0.09604357
0.0857205045959885 0.098556995 0.0870517816095541 0.0663446 -0.0104327408438186 0.015043064
0.1126185529491063 0.11317949 0.0357175404880334 0.02825762 0.0230711423101394 0.030055644
-0.0073523811724527 -0.006497016 0.0 -0.0030567762 0.1160818843390253 0.113220826
4.440892098500626e-16 -0.0001654382 0.0040991229645661 0.00014322583 0.0963937596688485 0.09518721
0.0290626528354009 0.02342798 0.0 0.0049036215 0.0045191973782031 -0.0052677924
-0.0232373824925113 -0.013785137 0.1102820492599649 0.098660395 0.0794948931367461 0.08875632
-0.0039429248515558 -0.0022815298 0.0634383642240781 0.05844847 0.0699040304754698 0.08111809
0.049053817241996 0.04676703 0.0183567828020648 0.016622823 0.072604746059968 0.08331386
0.0707137734381255 0.07919048 0.0845137223023954 0.07565476 0.1036257441927506 0.10536808
0.0001574942546778 -0.0016063805 -7.447934281668012e-05 -0.005326778 0.0001325712106909 0.004689186
0.0356615067549723 0.012835367 -0.0025488156776583 0.034534995 0.0901826102612091 0.09338116
-0.0301707114615833 -0.021652067 -8.948731733404713e-08 -0.015058819 0.0900941040470911 0.101432934
0.0382121661592578 0.02902686 0.0801665370661047 0.101654544 0.1144904826871895 0.091204956
0.0659865583573622 0.08099291 0.0855429684827335 0.08294903 0.100876427931569 0.060380463
4.440892098500626e-16 -0.0014616231 0.0 -0.005049527 0.0432155530771032 0.053342085
0.07062314770268 0.072580926 0.1025351382207517 0.10578453 0.039550899404728 0.04452695
0.0090029300135903 0.0128747355 0.0 -0.0030992855 0.0791943366425154 0.07878143
0.0456036589635402 0.036270533 0.0073238961809521 0.028832192 0.1132149253171534 0.090879925
0.0143269221798392 0.044841822 -0.0095456740567931 -0.036174502 0.0093515545977684 0.03488192
-0.0209726224120566 0.0064787623 0.0961935178843761 0.04232471 0.106568936869823 0.1097974
0.0642060579097387 0.06829517 0.015903692103852 0.00812684 0.0 0.010824054
0.0468376132876418 0.059185643 0.1028193738938184 0.081773624 0.0382105333221753 0.0542499
0.0801539923133492 0.06768509 0.0559619734158688 0.046107583 0.0083441160582819 0.0627258
0.0742236010036333 0.0983242 0.056291983103653 0.03487786 -0.0452676214228269 -0.02352629
-0.0033441378023733 0.006957082 0.0349967515270737 0.024048917 0.0928689969238428 0.08842827
-4.440892098500626e-16 -0.0028680954 -0.0188997143918749 -0.01675982 0.0938964219878696 0.090051204
0.1037685648478823 0.10348023 -0.0183392694093624 -0.017755382 0.0 0.0015788552
8.437694987151191e-15 0.012134487 0.07504067423237 0.051924035 -0.0368890802265586 -0.014250898
-0.007535210516524 -0.001964258 0.0 -0.0107834935 0.1069339862623162 0.10210681
0.0799080259528581 0.06106207 -0.0420313113250634 0.0011951323 0.1020405924181005 0.04865324
0.0595490055409447 0.06890846 -0.0001229808315474 -0.012325432 -1.7076404068561146e-06 0.014010786
0.1087629627904697 0.06912771 -0.0385042968676058 0.03416351 0.0629203714275501 0.04959152
0.0 0.0007703398 0.0 -0.009171076 0.0757670223921689 0.086815454
-4.440892098500626e-16 -0.0040344577 -0.0182275607147492 -0.022631392 0.0451561606764354 0.053550422
0.1016416220324827 0.104144685 0.0278096428981677 0.034204755 -2.220446049250313e-16 -0.0083598355
-0.0092471903956021 -0.010471856 0.0860828504691348 0.089227535 0.0624453896898413 0.061559755
0.0991294054775351 0.09640642 0.0774894349688593 0.08489734 0.0749190219839089 0.06671663
-0.0367515913926226 -0.036531314 0.0132472937091852 0.016595587 0.1090097650118939 0.09940079
-0.0252056185987967 -0.012291202 0.0197575650738968 0.004167102 -0.0200406236146102 -0.0022832502
0.0763698875752663 0.078935884 -1.1324274851176595e-14 0.0042325365 0.0983092447662724 0.09394726
0.0267550122155755 0.019268379 0.046982063154165 0.05360473 0.0590882459291883 0.076818116
0.0917313881383434 0.101088054 -0.020559019961136 -0.030058648 0.0944933741855888 0.07589728
0.1103727320512133 0.1062462 0.0814788697447066 0.07208506 0.0061749594102319 0.03148051
0.0402492378210266 0.052069362 0.0745192014183235 0.06561942 0.0850358466314572 0.07358582
0.031333898094727 0.045169264 0.0476502082322252 0.015964527 -6.661338147750939e-16 0.010866973
0.1012813858130075 0.08116438 -0.0159143032833973 0.011912579 0.0420316933531934 0.049555898
-0.0392931091348769 -0.04562726 0.0674777949490823 0.06718694 0.0954027899877302 0.09819757
-0.0366883560726536 -0.014826419 0.0242290498785373 0.005048446 -0.0247866045585787 -0.0022081335
0.0530253119773128 0.062195297 0.0001079476691356 -0.011867881 -0.0001254142816005 0.0131049985
0.0189208767025428 0.046841834 0.0663168553179867 0.054863393 0.0462630447675047 0.055726804
0.0391537806607089 0.022241727 -0.0258661940724163 -0.015537813 0.0266184490507888 0.017809777
-0.0506087834503365 -0.061453626 0.0685361663679871 0.09001746 0.0998065015321637 0.10117421
0.0597415262448581 0.0682271 0.0893449478149471 0.06773897 0.0701074417190262 0.08292989
0.0481645864002544 0.02582476 0.0142112474197253 0.063590914 0.0651249844940639 0.04059945
0.1026169913578806 0.11157922 0.0 -0.010539215 0.1045176331271244 0.10035993
0.1008377700027616 0.10313885 0.0299546858412667 0.024138717 -0.0080350356448283 -0.014032935
0.0915910713011838 0.0954001 0.0704579845053808 0.07976535 0.0023135065886952 -0.0038292904
0.0742863826607189 0.07102408 -0.0095624773866855 -0.00849887 0.0098528280846914 0.010519455
0.0103905862962161 0.0010077452 0.0402943664498199 0.068846494 0.1002590641665054 0.07863332
2.6313363510332977e-06 -0.0013930107 -1.2434497875801752e-14 -0.007032585 0.0625080636711963 0.067414984
0.0773726106720666 0.06616091 0.0165267240234188 0.027470129 0.0247934438872849 0.01658668
0.0378801959561467 0.049613606 0.1108740353185029 0.1099008 0.023655468508738 0.021879021
0.0737017595925232 0.084331945 0.1092937047757659 0.09029381 -1.2922996006636822e-13 0.016140806
0.0416001852799259 0.027859675 -0.0275122212617351 -0.020945936 0.0282355347774745 0.023224194
